X:1
T:Title
%%score 1 2 3
L:1/8
M:2/2
K:C
V:1 treble nm="Part_1"
V:2 treble-8 nm="Part_2"
V:3 treble-8 nm="Part_3"
V:1
 z8 | z8 | d8 | c4 B4 | A8 | B2 c2 d4- | d2 B2 ^c4 | d4 z4 | A4 A4 | B4 c4 | d6 c2 | _B2 A2 A4- | %12
 A2 F2 G4 | A8 | z4 E4 | F4 G4 | A4 _B4 | A4 d4 | c4 A4- | A2 G2 F4 | E8 | z4 D4 | E4 F4 | G4 z4 | %24
 B4 c4 | d6 c2 | B2 A2 G4 | c6 B2 | A2 G2 A4 | D4 G4- | G2 ^F2 F2 E2 | G8 | z8 | A8 | B4 c4 | d8 | %36
 G4 z4 | B4 B4 | c4 e4- | e2 d2 d4- | d2 c2 B2 A2 | G8 | A2 B2 c4- | c4 B4 | c8 | z4 c4 | d4 c4 | %47
 A4 _B4- | B2 A2 A4 | G8 | F8 | z4 F4 | F4 G4 | F2 E2 F4 | G8 | z4 A4- | A4 _B4- | B4 (3:2:1A6- | %58
 (3:2:2A2 G4 F4 | E8 | D8 | z4 D4 | F6 G2 | A4 B4 | c8 | f4 e4- | e2 d2 d4- | d2 B2 ^c4 | d8 | %69
 z4 A4 | c4 c4 | G8 | z4 E4 | F4 G4 | (3:2:2A8 G4 | F8 | G4 G4 | D8 | z4 E4 | D4 G4- | G2 E2 F4 | %81
 G4 _B4 | A8 | z4 d4 | c4 A4 | _B4 A4- | A2 G2 G4- | G4 ^F4 | G4 z4 | D4 E4 | F4 (3:2:1G6- | %91
 (3:2:2G2 A4 B4 | c4 d4- | d2 c2 B2 A2 | G4 c4- | c2 B2 A4- | A2 G2 F2 E2 | D8 | E2 F2 G4 | %99
 ^F2 F4 E2 | G8 |] %101
V:2
[K:F] g8 | f4 e4 | d8 | e2 f2 g4- | g2 f2 f2 e2 | g4 d4 | e8 | d8 | z4 d4 | d4 e4 | f6 e2 | d4 c4 | %12
 B8 | z4 A4 | B4 c4 | d4 e4 | d4 g4 | f4 d4 | e4 f4- | f2 e2 d4 | e4 c4 | d8 | z4 d4 | e4 f4 | %24
 g4 e4 | d4 g4- | g2 f2 e2 d2 | c4 f4- | f2 e2 d2 c2 | d4 G4 | A8 | G8 | z8 | z8 | z8 | d8 | %36
 e4 f4 | g8 | c8 | z4 g4 | g6 f2 | e2 d2 c4 | f4 e4 | d8 | c8- | c8 | z4 c4 | d6 c2 | d4 A4 | B8 | %50
 A4 z4 | d6 c2 | d4 B4 | A8 | G4 c4- | c2 B2 c4 | d8 | G4 d4- | d2 c2 d4 | e4 c4 | d4 d4 | g4 f4 | %62
 d6 e2 | f4 d4 | c4 f4 | z4 g4 | a4 f4 | e8 | z4 d4 | f4 f4 | c8 | z4 e4 | f4 c4 | d4 B4 | A8 | %75
 d8 | z8 | B8 | (3c8 B2 A2 | G8 | A8 | G8 | F8- | F8 | z4 F4 | G4 c4- | c4 B4 | A8 | G4 A4 | %89
 B4 c4 | d4 e4- | e2 f2 g4 | e4 d4 | g6 f2 | e2 d2 c4 | f6 e2 | d6 c2 | B2 A2 G4 | c4 B4 | A8 | %100
 G8 |] %101
V:3
 G8 | d4 c4 | d4 B4 | A4 G4 | d8 | G4 B4 | A8 | z4 D4 | D8 | G4 E4 | D4 z4 | D4 F4 | G8 | D8 | %14
 G4 A4 | D4 c4 | d4 G4 | d4 _B4 | A4 D4- | D8 | A8 | D8 | A4 D4 | z4 d4 | G4 A4 | B4 G4- | G4 c4 | %27
 A4 F4 | z4 F4- | F2 G2 E4 | D8 | z8 | d8 | f8 | d8- | d4 B4 | c4 A4 | G8 | A8 | z4 G4 | G8 | %41
 c4 A4 | D4 C4 | G8 | C4 F4- | F2 G2 A4 | G4 A4 | D4 G4 | D4 F4 | G8 | D8- | D8 | z4 G4 | D8 | %54
 E4 C4 | F8 | D4 G4 | z4 D4- | D4 D4 | A8 | D4 G4- | G4 D4- | D4 z4 | D4 G4 | A8 | d4 c4 | A4 d4 | %67
 A8 | D8 | z8 | F8 | c8 | F4 A4 | D4 G4 | D8 | D8 | E4 C4 | G8 | C8 | z4 G4 | D8 | E4 G4 | D8- | %83
 D8 | F4 D4 | z4 C4- | C4 G4 | D8 | d4 c4 | d4 A4 | D4 c4- | c4 G4 | A4 d4 | G8 | c4 A4 | F4 D4- | %96
 D8 | G4 _B4 | A4 G4 | D8 | d8 |] %101

